**kern	**kern	**dynam
*part1	*part1	*part1
*staff2	*staff1	*
*I"Piano	*	*
*clefF4	*clefG2	*
*k[]	*k[]	*
=1	=1	=1
8DL	2B))) 2d] 2g 2b	.
8G	.	.
8B	.	.
8dJ	.	.
=	=	=
!	!	!LO:DY:a
8FnL	4B 4d	pp
8G	.	.
8E	8.cL 8.e	.
8GJ	.	.
.	16cJk 16e	.
=	=	=
8DL	8B 8g	.
8G	8r	.
8F#X	8r	.
8GJ	8B 8fn	.
=	=	=
!	!	!LO:DY:a
8DL	4B 4f	<
8G	.	.
8C	4A 4e-X 4f#X	.
8DJ	.	[[
=	=	=
*	*^	*
!	!	!	!LO:DY:a
!	!	!	!LO:DY:a
8BBL	4a	2G 2d	f >
8D	.	.	.
8C#X	4g	.	.
8DJ	.	.	]]
*	*v	*v	*
=	=	=
8BBL	2G 2d 2g	.
8D	.	.
8C#X	.	.
8DJ	.	.
=	=	=
*	*^	*
!	!LO:TX:a:i:t=cresc.	!	!
8AAL	4.dd	2c 2f#X	.
8D	.	.	.
8C#X	.	.	.
8DJ	8ccn	.	.
*	*v	*v	*
=	=	=
*-	*-	*-
!!!system-decoration: {(s1,s2)}
